icons/lines/xd.svg

<svg xmlns="http://www.w3.org/2000/svg" width="24" height="24" viewBox="0 0 24 24" fill="none" stroke="currentColor" stroke-width="2" stroke-linecap="round" stroke-linejoin="round" >
  <path d="M15 22H9C4 22 2 20 2 15V9C2 4 4 2 9 2H15C20 2 22 4 22 9V15C22 20 20 22 15 22Z"/>
  <path d="M18.0004 8.5V15.6H16.2004C15.2004 15.6 14.4004 14.8 14.4004 13.8C14.4004 12.8 15.2004 12 16.2004 12H18.0004" stroke-miterlimit="10"/>
  <path d="M6 8.5L11.7 15.5" stroke-miterlimit="10"/>
  <path d="M11.7 8.5L6 15.5" stroke-miterlimit="10"/>
  </svg>

<svg xmlns="http://www.w3.org/2000/svg" width="24" height="24" viewBox="0 0 24 24" fill="none" stroke="currentColor" stroke-width="2" stroke-linecap="round" stroke-linejoin="round">
  <path d="m11.7 8.5-5.7 7" />
  <path d="M18 8.5v7.1h-1.8a1 1 0 0 1 0-3.6H18" />
  <path d="m6 8.5 5.7 7" />
  <path d="M9 22c-5 0-7-2-7-7V9c0-5 2-7 7-7h6c5 0 7 2 7 7v6c0 5-2 7-7 7z" />
</svg>
